X: 2
T: Balquhidder Lasses  v.2
P: piffero secondo b0074
O: safd 153
F: http://ancients.sudburymuster.org/mus/acn/pdf/fyf02F.pdf
F: http://ancients.sudburymuster.org/mus/acn/pdf/fyf03F.pdf
Z: 2019 John Chambers <jc:trillian.mit.edu>
M: 2/4
L: 1/16
K: Em
GF |\
E2B,2 E2EF | GAGE G3G | F2 F4 D2- | D^CDE F2GF |\
E2B,2 E2EF | G4 GBAG | FDA,D E2B,2 | E4 E2 :|
F2 |\
GABA G2(FG/A/ | G2)E2 E2DE | FGAG F2D2- | D2DE F2BA |\
GABA G2(FG/A/ | G2)E2 E2DE | FDA,D E2B,2 | E4 E2 ||
F2 |\
GABA G2FG/A/ | G2E2 E2DE | FGAG F2D2- | D2DE F2GF |\
E2B,2 E2EF | GFGA BAG2 | FDA,D E2B,2 | E4 E2 |]


